svgs/solid/presentation-screen.svg

<svg xmlns="http://www.w3.org/2000/svg" viewBox="0 0 576 512"><!--! Font Awesome Pro 6.6.0 by @fontawesome - https://fontawesome.com License - https://fontawesome.com/license (Commercial License) Copyright 2024 Fonticons, Inc. --><path d="M32 0C14.3 0 0 14.3 0 32S14.3 64 32 64l0 224c0 35.3 28.7 64 64 64l160 0 0 34.7-70.6 70.6c-12.5 12.5-12.5 32.8 0 45.3s32.8 12.5 45.3 0L288 445.3l57.4 57.4c12.5 12.5 32.8 12.5 45.3 0s12.5-32.8 0-45.3L320 386.7l0-34.7 160 0c35.3 0 64-28.7 64-64l0-224c17.7 0 32-14.3 32-32s-14.3-32-32-32L512 0 64 0 32 0zM96 64l384 0 0 224-192 0L96 288 96 64z"/></svg>

<svg xmlns="http://www.w3.org/2000/svg" viewBox="0 0 576 512"><!--! Font Awesome Pro 6.4.0 by @fontawesome - https://fontawesome.com License - https://fontawesome.com/license (Commercial License) Copyright 2023 Fonticons, Inc. --><path d="M32 0C14.3 0 0 14.3 0 32S14.3 64 32 64V288c0 35.3 28.7 64 64 64H256v34.7l-70.6 70.6c-12.5 12.5-12.5 32.8 0 45.3s32.8 12.5 45.3 0L288 445.3l57.4 57.4c12.5 12.5 32.8 12.5 45.3 0s12.5-32.8 0-45.3L320 386.7V352H480c35.3 0 64-28.7 64-64V64c17.7 0 32-14.3 32-32s-14.3-32-32-32H512 64 32zM96 64H480V288H288 96V64z"/></svg>
